X: 740
T: Eyledin Bezm-i Tarabda
C: Ahmet Avni Konuk
O: Turkey
F: http://compmusic.upf.edu/node/140
N: sultaniyegah--kupe--yuruksemai_ii--eyledin--ahmet_avni_konuk
N: makam= sultaniyegah
N: form= kupe
N: usul= yuruksemai_ii = 6/8
M: 6/8
L: 1/16
K: C _B ^c  
Q: 1/4=120
%%MIDI tuningsystem comma53
d4 e2fe d2dc  | d8-d2z2  | f4 fef4z2  | \
w:  Ey le din   |  bezm_  |  i  ta *  rab  | 
g2g2 a2a2 a2z2  | 
w:  da   | 
g4 b2a4g2  | f4 fedc d4  | f2e2 d2c2 d2ed  | \
w:  fasl_ ı  Sul  |  tâ  |  nî *  *  *  *  ye  | 
d8-d2z2  | d4 d2d4z2  | 
w:  gâh    |  Nâ ze nî  | 
c2d2 _e2ed d3c  | c4 B2B4z2  | A4 c2BA A4  | \
w:  nim   |  hoş la nıp   |  et  | 
G4 B2A4G2  | F4 FED^3/4C D4  | 
w:  ti  bi ze   |  bir   | 
F2E2 D2^3/4C2 D2ED  | D8-D2z2  | |


